resources/svg/refund-2-fill.svg

<svg fill="currentColor" viewBox="0 0 24 24" xmlns="http://www.w3.org/2000/svg"><path d="M12.0049 2C17.5277 2 22.0049 6.47715 22.0049 12C22.0049 17.5228 17.5277 22 12.0049 22C9.57847 22 7.3539 21.1358 5.62216 19.6985L5.37815 19.4892L6.27949 17.5875C7.73229 19.0759 9.76067 20 12.0049 20C16.4232 20 20.0049 16.4183 20.0049 12C20.0049 7.58172 16.4232 4 12.0049 4C7.66997 4 4.14034 7.44784 4.00869 11.7508L4.00488 12H6.50488L3.79854 17.7161C2.66796 16.096 2.00488 14.1254 2.00488 12C2.00488 6.47715 6.48204 2 12.0049 2ZM13.0049 6V8H15.5049V10H10.0049C9.72874 10 9.50488 10.2239 9.50488 10.5C9.50488 10.7455 9.68176 10.9496 9.91501 10.9919L10.0049 11H14.0049C15.3856 11 16.5049 12.1193 16.5049 13.5C16.5049 14.8807 15.3856 16 14.0049 16H13.0049V18H11.0049V16H8.50488V14H14.0049C14.281 14 14.5049 13.7761 14.5049 13.5C14.5049 13.2545 14.328 13.0504 14.0948 13.0081L14.0049 13H10.0049C8.62417 13 7.50488 11.8807 7.50488 10.5C7.50488 9.11929 8.62417 8 10.0049 8H11.0049V6H13.0049Z"/></svg>

<svg xmlns="http://www.w3.org/2000/svg" viewBox="0 0 24 24" fill="currentColor">
    <g>
        <path fill="none" d="M0 0h24v24H0z"/>
        <path d="M12 2c5.523 0 10 4.477 10 10s-4.477 10-10 10a9.96 9.96 0 0 1-6.383-2.302l-.244-.209.902-1.902a8 8 0 1 0-2.27-5.837l-.005.25h2.5l-2.706 5.716A9.954 9.954 0 0 1 2 12C2 6.477 6.477 2 12 2zm1 4v2h2.5v2H10a.5.5 0 0 0-.09.992L10 11h4a2.5 2.5 0 1 1 0 5h-1v2h-2v-2H8.5v-2H14a.5.5 0 0 0 .09-.992L14 13h-4a2.5 2.5 0 1 1 0-5h1V6h2z"/>
    </g>
</svg>
